sources/design/Outline/Z.svg

<svg:svg xmlns:cc="http://creativecommons.org/ns#" xmlns:dc="http://purl.org/dc/elements/1.1/" xmlns:inkscape="http://www.inkscape.org/namespaces/inkscape" xmlns:rdf="http://www.w3.org/1999/02/22-rdf-syntax-ns#" xmlns:sodipodi="http://sodipodi.sourceforge.net/DTD/sodipodi-0.dtd" xmlns:svg="http://www.w3.org/2000/svg" xml:space="preserve" width="1000" height="1000" version="1.1" style="clip-rule:evenodd;fill-rule:evenodd;image-rendering:optimizeQuality;shape-rendering:geometricPrecision;text-rendering:geometricPrecision" viewBox="0 0 1000 1000" id="svg10" sodipodi:docname="Z.svg" inkscape:version="1.1.1 (3bf5ae0d25, 2021-09-20)"><svg:text text-anchor="middle" x="309.73236" y="-4.3088989" id="top" inkscape:label="top" style="clip-rule:evenodd;fill-rule:evenodd;image-rendering:optimizeQuality;shape-rendering:geometricPrecision;text-rendering:geometricPrecision">✛</svg:text><svg:metadata id="metadata14"><rdf:RDF><cc:Work rdf:about=""><dc:format>image/svg+xml</dc:format><dc:type rdf:resource="http://purl.org/dc/dcmitype/StillImage" /><dc:title /></cc:Work></rdf:RDF></svg:metadata><sodipodi:namedview pagecolor="#ffffff" bordercolor="#666666" borderopacity="1" objecttolerance="10" gridtolerance="10" guidetolerance="10" inkscape:pageopacity="0" inkscape:pageshadow="2" inkscape:window-width="1920" inkscape:window-height="1009" id="namedview12" showgrid="false" inkscape:zoom="0.84890884" inkscape:cx="161.97263" inkscape:cy="-8.2458795" inkscape:window-x="0" inkscape:window-y="60" inkscape:window-maximized="1" inkscape:current-layer="svg10" showguides="true" inkscape:guide-bbox="true" inkscape:document-rotation="0" inkscape:pagecheckerboard="0"><sodipodi:guide position="0,1000" orientation="0,1" id="guide16" inkscape:label="" inkscape:locked="true" inkscape:color="rgb(0,0,255)" /><sodipodi:guide position="1763.3122,2036.1693" orientation="1000,0" id="guide18" /><sodipodi:guide position="0,200" orientation="0,1" id="guide20" inkscape:label="base" inkscape:locked="true" inkscape:color="rgb(0,0,255)" /><inkscape:grid type="xygrid" id="grid24" originx="-473.37552" originy="-489.69235" /><sodipodi:guide position="0,0" orientation="0,1" id="guide34" inkscape:label="bottom" inkscape:locked="true" inkscape:color="rgb(0,0,255)" /><sodipodi:guide position="225.05109,1693.3186" orientation="0,1" id="guide44" inkscape:label="" inkscape:locked="false" inkscape:color="rgb(0,0,255)" /><sodipodi:guide position="0,900" orientation="0,1" id="guide46" inkscape:label="" inkscape:locked="true" inkscape:color="rgb(0,0,255)" /><sodipodi:guide position="595.90773,522.46984" orientation="1,0" id="guide841" inkscape:label="width" />    </sodipodi:namedview>
 <svg:defs id="defs4"><inkscape:path-effect effect="fillet_chamfer" id="path-effect855" is_visible="true" lpeversion="1" satellites_param="F,0,0,1,0,14.997223,0,1 @ F,0,0,1,0,18.535484,0,1 @ F,0,0,1,0,0,0,1 @ F,0,0,1,0,0,0,1 @ F,0,0,1,0,37.766736,0,1 @ F,0,0,1,0,0,0,1 @ F,0,0,1,0,0,0,1 @ F,0,0,1,0,0,0,1 @ F,0,0,1,0,35.104813,0,1 @ F,0,0,1,0,26.821854,0,1 @ F,0,0,1,0,0,0,1 @ F,0,0,1,0,0,0,1 @ F,0,0,1,0,34.644015,0,1 @ F,0,0,1,0,0,0,1 @ F,0,0,1,0,0,0,1 @ F,0,0,1,0,0,0,1 @ F,0,0,1,0,0,0,1" unit="px" method="auto" mode="F" radius="0" chamfer_steps="1" flexible="false" use_knot_distance="true" apply_no_radius="true" apply_with_radius="true" only_selected="true" hide_knots="false" /><inkscape:path-effect effect="fillet_chamfer" id="path-effect854" is_visible="true" lpeversion="1" satellites_param="F,0,0,1,1,20.722432,0,1 @ F,0,0,1,1,21.525904,0,1 @ F,0,0,1,1,0,0,1 @ F,0,0,1,1,0,0,1 @ F,0,0,1,1,24.99547,0,1 @ F,0,0,1,1,0,0,1 @ F,0,0,1,1,0,0,1 @ F,0,0,1,1,0,0,1 @ F,0,0,1,1,33.901444,0,1 @ F,0,0,1,1,17.556933,0,1 @ F,0,0,1,1,0,0,1 @ F,0,0,1,1,0,0,1 @ F,0,0,1,1,25.345315,0,1 @ F,0,0,1,1,0,0,1 @ F,0,0,1,1,0,0,1 @ F,0,0,1,1,0,0,1 @ F,0,0,1,1,0,0,1 @ F,0,0,1,1,0,0,1 @ F,0,0,1,1,0,0,1 @ F,0,0,1,1,0,0,1 @ F,0,1,1,1,0,0,1 @ F,0,0,1,1,0,0,1 @ F,0,0,1,1,0,0,1 @ F,0,0,1,1,0,0,1 @ F,0,0,1,1,0,0,1 @ F,0,0,1,1,0,0,1 @ F,0,0,1,1,0,0,1 @ F,0,0,1,1,0,0,1 @ F,0,0,1,1,0,0,1" unit="px" method="auto" mode="F" radius="0" chamfer_steps="1" flexible="false" use_knot_distance="true" apply_no_radius="true" apply_with_radius="true" only_selected="true" hide_knots="true" /><inkscape:path-effect effect="spiro" id="path-effect853" is_visible="true" lpeversion="1" /><inkscape:path-effect effect="spiro" id="path-effect928" is_visible="true" lpeversion="1" /><inkscape:path-effect effect="spiro" id="path-effect921" is_visible="true" lpeversion="1" /><inkscape:path-effect effect="spiro" id="path-effect917" is_visible="true" lpeversion="1" /><inkscape:path-effect effect="spiro" id="path-effect849" is_visible="true" lpeversion="1" /><inkscape:path-effect effect="spiro" id="path-effect851" is_visible="true" lpeversion="1" />
  <svg:style type="text/css" id="style2">
   
    .fil0 {fill:#EF7F1A;fill-rule:nonzero}
   
  </svg:style>
 <inkscape:path-effect effect="spiro" id="path-effect1214" is_visible="true" lpeversion="1" /><inkscape:path-effect effect="spiro" id="path-effect1195" is_visible="true" lpeversion="1" /><inkscape:path-effect effect="spiro" id="path-effect992" is_visible="true" lpeversion="1" /><inkscape:path-effect effect="spiro" id="path-effect1060" is_visible="true" lpeversion="1" /><inkscape:path-effect effect="spiro" id="path-effect1047" is_visible="true" lpeversion="1" /><inkscape:path-effect effect="spiro" id="path-effect1085" is_visible="true" lpeversion="1" /><inkscape:path-effect effect="spiro" id="path-effect1286" is_visible="true" lpeversion="1" /><inkscape:path-effect effect="spiro" id="path-effect117" is_visible="true" lpeversion="1" /></svg:defs>
 
<svg:g id="path115"><svg:path style="color:#000000;fill:#1a5fb4;fill-rule:nonzero;stroke-linecap:round;stroke-linejoin:round;-inkscape-stroke:none;paint-order:fill stroke markers" d="M 168.38477,-33.291016 C 129.01602,-34.028923 89.599205,-30.114857999999998 51.150391,-21.673828 C 25.097706,-15.954237 9.796526800000002,3.8092685999999993 9.015625,29.576172 L 5.4609375,146.83008 C 5.1056993,158.55164000000002 10.160435,172.65921 21.386719,181.00781 C 32.613002,189.35642 47.292080999999996,190.14195 58.353516,186.61328 C 94.17936,175.18461 130.88029,166.47374 168.01953,160.58984 C 245.8155,148.26479 325.6557,148.49922 403.43164,161.08203 C 371.78867,233.71645999999998 333.49289,303.46548 289.13086,369.10352 C 229.27792,457.6619 157.64866999999998,539.76072 89.40820299999999,626.5390600000001 C 56.33181299999998,668.6008200000001 24.311292999999992,711.4941000000001 -6.613281200000017,755.1621100000001 C -15.705564000000017,768.00115 -23.025816000000017,787.8944500000001 -11.984375000000018,806.6914100000001 C -0.9429336100000185,825.4883600000002 19.46846199999998,828.7842800000001 35.041015999999985,827.4531200000001 C 88.25646799999998,822.9042200000001 141.70333,821.0333900000002 195.10547,821.8554700000001 C 292.06993,823.34815 391.73258999999996,834.08761 493.76171999999997,827.3457000000001 C 515.2334,825.9268900000001 536.6518199999999,823.7266500000001 557.96289,820.7519500000001 C 589.0566,816.4117600000001 610.24491,791.3579900000001 610.78516,760.6269500000001 L 612.66797,653.5625000000001 C 612.95553,637.2049100000002 606.56666,617.4600800000001 589.2070299999999,607.6562500000001 C 571.8473999999999,597.8524200000002 552.6263899999999,602.1575900000001 538.6249999999999,610.0136700000002 C 484.35564999999986,640.4638300000001 423.9256999999999,660.1797700000002 362.16796999999985,667.4335900000002 C 324.29811999999987,671.8816400000002 285.8547199999999,671.5770000000002 247.99022999999985,666.8222700000002 C 314.21066,594.26011 374.2862,516.10395 427.17578,433.31445 C 504.45182,312.35218 566.47307,181.70864 611.39453,45.388672 C 616.77334,29.06599 616.27048,7.4474212 601.88867,-7.2207031 C 587.50687,-21.888827 567.29951,-23.026366 550.96289,-19.130859 C 504.47244,-8.0450952 456.36671,-3.5487127 408.65625,-5.8867187 C 332.87688,-9.6002155 253.82384,-31.68959 168.38477,-33.291016 M 167.25977,26.699219 C 242.51929,28.109844 320.96587999999997,49.889639 405.72069999999997,54.042969 C 453.66576999999995,56.392472 501.83578,52.534417 548.80078,42.767578 C 505.93362,168.46872 448.1088,289.09979 376.61328,401.01367 C 315.93638,495.99287 245.54429,584.78454 166.91211,665.5293 A 30.003,30.003 0.0 0,0 181.32227,715.61328 C 242.6375,730.5052800000001 306.50099,734.38406 369.16796999999997,727.02344 C 433.05377999999996,719.51966 495.31076999999993,700.17142 552.3593699999999,670.60742 L 550.7949199999999,759.57227 C 550.8144199999999,758.46323 547.91712,761.57279 549.6699199999999,761.32812 C 529.79882,764.10182 509.8259099999999,766.15372 489.8066399999999,767.4765600000001 C 394.6608999999999,773.7636200000001 296.6462899999999,763.41219 196.02929999999992,761.86328 C 150.68200999999993,761.1652 105.31601999999992,762.44117 60.066405999999915,765.4765600000001 C 84.93962399999992,731.0587300000001 110.32298999999992,697.0089300000001 136.57226999999992,663.62891 C 203.53376999999992,578.47696 276.2184899999999,495.35859000000005 338.8417999999999,402.70117000000005 C 392.44562999999994,323.38897000000003 437.6016299999999,238.39941000000005 473.3222699999999,149.58594000000005 A 30.003,30.003 0.0 0,0 451.73633,109.04883 C 355.56548,88.57269 255.74616,85.944296 158.63086,101.33008 C 127.46707,106.2673 96.616401,113.09332 66.251953,121.65625 L 68.847656,36.017578 C 101.17683,29.296373 134.25716,26.080635 167.25977,26.699219 M 68.988281,31.392578 C 68.932341,33.238267 68.966971,34.168498 68.884766,34.835937 L 68.988281,31.392578" id="path10756" /></svg:g></svg:svg>

<svg:svg xmlns:cc="http://creativecommons.org/ns#" xmlns:dc="http://purl.org/dc/elements/1.1/" xmlns:inkscape="http://www.inkscape.org/namespaces/inkscape" xmlns:rdf="http://www.w3.org/1999/02/22-rdf-syntax-ns#" xmlns:sodipodi="http://sodipodi.sourceforge.net/DTD/sodipodi-0.dtd" xmlns:svg="http://www.w3.org/2000/svg" xml:space="preserve" width="1000" height="1000" version="1.1" style="clip-rule:evenodd;fill-rule:evenodd;image-rendering:optimizeQuality;shape-rendering:geometricPrecision;text-rendering:geometricPrecision" viewBox="0 0 1000 1000" id="svg10" sodipodi:docname="Z.svg" inkscape:version="1.1.1 (3bf5ae0d25, 2021-09-20)"><svg:text text-anchor="middle" x="309.73236" y="-4.3088989" id="top" inkscape:label="top" style="clip-rule:evenodd;fill-rule:evenodd;image-rendering:optimizeQuality;shape-rendering:geometricPrecision;text-rendering:geometricPrecision">✛</svg:text><svg:metadata id="metadata14"><rdf:RDF><cc:Work rdf:about=""><dc:format>image/svg+xml</dc:format><dc:type rdf:resource="http://purl.org/dc/dcmitype/StillImage" /><dc:title /></cc:Work></rdf:RDF></svg:metadata><sodipodi:namedview pagecolor="#ffffff" bordercolor="#666666" borderopacity="1" objecttolerance="10" gridtolerance="10" guidetolerance="10" inkscape:pageopacity="0" inkscape:pageshadow="2" inkscape:window-width="1920" inkscape:window-height="1009" id="namedview12" showgrid="false" inkscape:zoom="0.84890884" inkscape:cx="161.97263" inkscape:cy="-8.2458795" inkscape:window-x="0" inkscape:window-y="60" inkscape:window-maximized="1" inkscape:current-layer="svg10" showguides="true" inkscape:guide-bbox="true" inkscape:document-rotation="0" inkscape:pagecheckerboard="0"><sodipodi:guide position="0,1000" orientation="0,1" id="guide16" inkscape:label="" inkscape:locked="true" inkscape:color="rgb(0,0,255)" /><sodipodi:guide position="1763.3122,2036.1693" orientation="1000,0" id="guide18" /><sodipodi:guide position="0,200" orientation="0,1" id="guide20" inkscape:label="base" inkscape:locked="true" inkscape:color="rgb(0,0,255)" /><inkscape:grid type="xygrid" id="grid24" originx="-473.37552" originy="-489.69235" /><sodipodi:guide position="0,0" orientation="0,1" id="guide34" inkscape:label="bottom" inkscape:locked="true" inkscape:color="rgb(0,0,255)" /><sodipodi:guide position="225.05109,1693.3186" orientation="0,1" id="guide44" inkscape:label="" inkscape:locked="false" inkscape:color="rgb(0,0,255)" /><sodipodi:guide position="0,900" orientation="0,1" id="guide46" inkscape:label="" inkscape:locked="true" inkscape:color="rgb(0,0,255)" /><sodipodi:guide position="595.90773,522.46984" orientation="1,0" id="guide841" inkscape:label="width" />    </sodipodi:namedview>
 <svg:defs id="defs4"><inkscape:path-effect effect="fillet_chamfer" id="path-effect855" is_visible="true" lpeversion="1" satellites_param="F,0,0,1,0,14.997223,0,1 @ F,0,0,1,0,18.535484,0,1 @ F,0,0,1,0,0,0,1 @ F,0,0,1,0,0,0,1 @ F,0,0,1,0,37.766736,0,1 @ F,0,0,1,0,0,0,1 @ F,0,0,1,0,0,0,1 @ F,0,0,1,0,0,0,1 @ F,0,0,1,0,35.104813,0,1 @ F,0,0,1,0,26.821854,0,1 @ F,0,0,1,0,0,0,1 @ F,0,0,1,0,0,0,1 @ F,0,0,1,0,34.644015,0,1 @ F,0,0,1,0,0,0,1 @ F,0,0,1,0,0,0,1 @ F,0,0,1,0,0,0,1 @ F,0,0,1,0,0,0,1" unit="px" method="auto" mode="F" radius="0" chamfer_steps="1" flexible="false" use_knot_distance="true" apply_no_radius="true" apply_with_radius="true" only_selected="true" hide_knots="false" /><inkscape:path-effect effect="fillet_chamfer" id="path-effect854" is_visible="true" lpeversion="1" satellites_param="F,0,0,1,1,20.722432,0,1 @ F,0,0,1,1,21.525904,0,1 @ F,0,0,1,1,0,0,1 @ F,0,0,1,1,0,0,1 @ F,0,0,1,1,24.99547,0,1 @ F,0,0,1,1,0,0,1 @ F,0,0,1,1,0,0,1 @ F,0,0,1,1,0,0,1 @ F,0,0,1,1,33.901444,0,1 @ F,0,0,1,1,17.556933,0,1 @ F,0,0,1,1,0,0,1 @ F,0,0,1,1,0,0,1 @ F,0,0,1,1,25.345315,0,1 @ F,0,0,1,1,0,0,1 @ F,0,0,1,1,0,0,1 @ F,0,0,1,1,0,0,1 @ F,0,0,1,1,0,0,1 @ F,0,0,1,1,0,0,1 @ F,0,0,1,1,0,0,1 @ F,0,0,1,1,0,0,1 @ F,0,1,1,1,0,0,1 @ F,0,0,1,1,0,0,1 @ F,0,0,1,1,0,0,1 @ F,0,0,1,1,0,0,1 @ F,0,0,1,1,0,0,1 @ F,0,0,1,1,0,0,1 @ F,0,0,1,1,0,0,1 @ F,0,0,1,1,0,0,1 @ F,0,0,1,1,0,0,1" unit="px" method="auto" mode="F" radius="0" chamfer_steps="1" flexible="false" use_knot_distance="true" apply_no_radius="true" apply_with_radius="true" only_selected="true" hide_knots="true" /><inkscape:path-effect effect="spiro" id="path-effect853" is_visible="true" lpeversion="1" /><inkscape:path-effect effect="spiro" id="path-effect928" is_visible="true" lpeversion="1" /><inkscape:path-effect effect="spiro" id="path-effect921" is_visible="true" lpeversion="1" /><inkscape:path-effect effect="spiro" id="path-effect917" is_visible="true" lpeversion="1" /><inkscape:path-effect effect="spiro" id="path-effect849" is_visible="true" lpeversion="1" /><inkscape:path-effect effect="spiro" id="path-effect851" is_visible="true" lpeversion="1" />
  <svg:style type="text/css" id="style2">
   
    .fil0 {fill:#EF7F1A;fill-rule:nonzero}
   
  </svg:style>
 <inkscape:path-effect effect="spiro" id="path-effect1214" is_visible="true" lpeversion="1" /><inkscape:path-effect effect="spiro" id="path-effect1195" is_visible="true" lpeversion="1" /><inkscape:path-effect effect="spiro" id="path-effect992" is_visible="true" lpeversion="1" /><inkscape:path-effect effect="spiro" id="path-effect1060" is_visible="true" lpeversion="1" /><inkscape:path-effect effect="spiro" id="path-effect1047" is_visible="true" lpeversion="1" /><inkscape:path-effect effect="spiro" id="path-effect1085" is_visible="true" lpeversion="1" /><inkscape:path-effect effect="spiro" id="path-effect1286" is_visible="true" lpeversion="1" /><inkscape:path-effect effect="spiro" id="path-effect117" is_visible="true" lpeversion="1" /></svg:defs>
 
<svg:g id="path115"><svg:path style="color:#000000;fill:#1a5fb4;fill-rule:nonzero;stroke-linecap:round;stroke-linejoin:round;-inkscape-stroke:none" d="m 168.38477,-33.291016 c -39.36875,-0.737907 -78.785565,3.176158 -117.234379,11.617188 -26.052685,5.719591 -41.3538642,25.4830966 -42.134766,51.25 L 5.4609375,146.83008 c -0.3552382,11.72156 4.6994975,25.82913 15.9257815,34.17773 11.226283,8.34861 25.905362,9.13414 36.966797,5.60547 35.825844,-11.42867 72.526774,-20.13954 109.666014,-26.02344 77.79597,-12.32505 157.63617,-12.09062 235.41211,0.49219 -31.64297,72.63443 -69.93875,142.38345 -114.30078,208.02149 -59.85294,88.55838 -131.48219,170.6572 -199.722657,257.43554 -33.07639,42.06176 -65.09691,84.95504 -96.0214842,128.62305 -9.0922828,12.83904 -16.4125348,32.73234 -5.3710938,51.5293 11.04144139,18.79695 31.452837,22.09287 47.025391,20.76171 53.215452,-4.5489 106.662314,-6.41973 160.064454,-5.59765 96.96446,1.49268 196.62712,12.23214 298.65625,5.49023 21.47168,-1.41881 42.8901,-3.61905 64.20117,-6.59375 31.09371,-4.34019 52.28202,-29.39396 52.82227,-60.125 l 1.88281,-107.06445 c 0.28756,-16.35759 -6.10131,-36.10242 -23.46094,-45.90625 -17.35963,-9.80383 -36.58064,-5.49866 -50.58203,2.35742 -54.26935,30.45016 -114.6993,50.1661 -176.45703,57.41992 -37.86985,4.44805 -76.31325,4.14341 -114.17774,-0.61132 C 314.21066,594.26011 374.2862,516.10395 427.17578,433.31445 504.45182,312.35218 566.47307,181.70864 611.39453,45.388672 616.77334,29.06599 616.27048,7.4474212 601.88867,-7.2207031 587.50687,-21.888827 567.29951,-23.026366 550.96289,-19.130859 504.47244,-8.0450952 456.36671,-3.5487127 408.65625,-5.8867187 332.87688,-9.6002155 253.82384,-31.68959 168.38477,-33.291016 Z m -1.125,59.990235 c 75.25952,1.410625 153.70611,23.19042 238.46093,27.34375 47.94507,2.349503 96.11508,-1.508552 143.08008,-11.275391 C 505.93362,168.46872 448.1088,289.09979 376.61328,401.01367 315.93638,495.99287 245.54429,584.78454 166.91211,665.5293 a 30.003,30.003 0 0 0 14.41016,50.08398 c 61.31523,14.892 125.17872,18.77078 187.8457,11.41016 63.88581,-7.50378 126.1428,-26.85202 183.1914,-56.41602 l -1.56445,88.96485 c 0.0195,-1.10904 -2.8778,2.00052 -1.125,1.75585 -19.8711,2.7737 -39.84401,4.8256 -59.86328,6.14844 -95.14574,6.28706 -193.16035,-4.06437 -293.77734,-5.61328 -45.34729,-0.69808 -90.71328,0.57789 -135.962894,3.61328 24.873218,-34.41783 50.256584,-68.46763 76.505864,-101.84765 66.9615,-85.15195 139.64622,-168.27032 202.26953,-260.92774 53.60383,-79.3122 98.75983,-164.30176 134.48047,-253.11523 A 30.003,30.003 0 0 0 451.73633,109.04883 C 355.56548,88.57269 255.74616,85.944296 158.63086,101.33008 127.46707,106.2673 96.616401,113.09332 66.251953,121.65625 l 2.595703,-85.638672 c 32.329174,-6.721205 65.409504,-9.936943 98.412114,-9.318359 z m -98.271489,4.693359 c -0.05594,1.845689 -0.02131,2.77592 -0.103515,3.443359 z" id="path10738" /></svg:g></svg:svg>
